mono-glyphs/desktop-w.svg

<svg xmlns="http://www.w3.org/2000/svg" width="1024" height="1024" fill="none" viewBox="0 0 1024 1024">
  <g clip-path="url(#a)">
    <path fill="#fff" d="M835.5 128c25 0 48.917 5.083 71.75 15.25s42.833 23.833 60 41 30.833 37.167 41 60c10.17 22.833 15.25 46.75 15.25 71.75v392c0 25-5.08 48.917-15.25 71.75-10.167 22.833-23.833 42.833-41 60s-37.167 30.833-60 41C884.417 890.917 860.5 896 835.5 896h-648c-25 0-48.917-5.083-71.75-15.25s-42.833-23.833-60-41-30.833-37.167-41-60C4.583 756.917-.5 733-.5 708V316c0-25 5.083-48.917 15.25-71.75s23.833-42.833 41-60 37.167-30.833 60-41C138.583 133.083 162.5 128 187.5 128h648ZM189 192c-16.667 0-32.583 3.417-47.75 10.25-15.167 6.833-28.5 16-40 27.5s-20.667 24.833-27.5 40c-6.833 15.167-10.25 31.083-10.25 47.75V576h896V317.5c0-16.667-3.417-32.583-10.25-47.75-6.833-15.167-16-28.5-27.5-40s-24.833-20.667-40-27.5C866.583 195.417 850.667 192 834 192H189Zm645 640c16.667 0 32.583-3.417 47.75-10.25 15.167-6.833 28.5-16 40-27.5s20.667-24.833 27.5-40c6.833-15.167 10.25-31.083 10.25-47.75V640h-896v66.5c0 16.667 3.417 32.583 10.25 47.75 6.833 15.167 16 28.5 27.5 40s24.833 20.667 40 27.5C156.417 828.583 172.333 832 189 832h645Z"/>
  </g>
  <defs>
    <clipPath id="a">
      <path fill="#fff" d="M0 0h1024v1024H0z"/>
    </clipPath>
  </defs>
</svg>

<svg width="1024" height="1024" viewBox="0 0 1024 1024" fill="none" xmlns="http://www.w3.org/2000/svg">
<g clip-path="url(#clip0_47_1399)">
<mask id="mask0_47_1399" style="mask-type:luminance" maskUnits="userSpaceOnUse" x="-1" y="128" width="1025" height="768">
<path d="M1023.5 128H-0.5V896H1023.5V128Z" fill="white"/>
</mask>
<g mask="url(#mask0_47_1399)">
<path d="M835.5 128C860.5 128 884.417 133.083 907.25 143.25C930.083 153.417 950.083 167.083 967.25 184.25C984.417 201.417 998.083 221.417 1008.25 244.25C1018.42 267.083 1023.5 291 1023.5 316V708C1023.5 733 1018.42 756.917 1008.25 779.75C998.083 802.583 984.417 822.583 967.25 839.75C950.083 856.917 930.083 870.583 907.25 880.75C884.417 890.917 860.5 896 835.5 896H187.5C162.5 896 138.583 890.917 115.75 880.75C92.9167 870.583 72.9167 856.917 55.75 839.75C38.5833 822.583 24.9167 802.583 14.75 779.75C4.58333 756.917 -0.5 733 -0.5 708V316C-0.5 291 4.58333 267.083 14.75 244.25C24.9167 221.417 38.5833 201.417 55.75 184.25C72.9167 167.083 92.9167 153.417 115.75 143.25C138.583 133.083 162.5 128 187.5 128H835.5ZM189 192C172.333 192 156.417 195.417 141.25 202.25C126.083 209.083 112.75 218.25 101.25 229.75C89.75 241.25 80.5833 254.583 73.75 269.75C66.9167 284.917 63.5 300.833 63.5 317.5V576H959.5V317.5C959.5 300.833 956.083 284.917 949.25 269.75C942.417 254.583 933.25 241.25 921.75 229.75C910.25 218.25 896.917 209.083 881.75 202.25C866.583 195.417 850.667 192 834 192H189ZM834 832C850.667 832 866.583 828.583 881.75 821.75C896.917 814.917 910.25 805.75 921.75 794.25C933.25 782.75 942.417 769.417 949.25 754.25C956.083 739.083 959.5 723.167 959.5 706.5V640H63.5V706.5C63.5 723.167 66.9167 739.083 73.75 754.25C80.5833 769.417 89.75 782.75 101.25 794.25C112.75 805.75 126.083 814.917 141.25 821.75C156.417 828.583 172.333 832 189 832H834Z" fill="white"/>
</g>
</g>
<defs>
<clipPath id="clip0_47_1399">
<rect width="1024" height="1024" fill="white"/>
</clipPath>
</defs>
</svg>
